X:42
M:C|
L:1/8
Q:1/2=80
K:G
g2 fe a2 g2|fafd ege^c|d2D2 D3::A|defg a2c2|c2 BA B2 d2|ecBA dBAG|
cABG AFED|GABc defd|g2 fe d2 c2|BdBG AcAF|G2G,2 G,3:|

